X:1
T:Title
%%score { ( 1 3 ) | ( 2 4 ) }
L:1/8
M:6/8
K:Eb
V:1 treble nm="Grand Piano"
V:3 treble 
V:2 bass 
V:4 bass 
V:1
 z3 z2[Q:1/4=90] B | B2 B c2 B | G2 E E2 G | [DF]2 D [DB]2 [DF] | [EG]3- [EG]2 [GB] | %5
 [GB]2 [GB] [Ac]2 [GB] | G2 E E2 G | z E[DFd] [CEG]2 [CE=A] | [B,DB]3- [B,DB]2 [DB] | %9
 [DB]2 [Dc] [EB]2 [EB] | [FB]2 [Fc] [GB]2 [GB] | [AB]2 [Ac] B2 [Ge] | [Fd]3- [Fd]2 [Ad] | %13
 [Ge] [GB]2 G2 e | e2 F A2 [Ec] | [DB]2 [B,EB] [B,B]-[B,GB][B,AB] | B6 | %17
[M:7/8] [Ge]2 [EG] [EF] [DB]3 |[M:5/8] E-E- E3 |] %19
V:2
 z3 z2 [E,G,E] | [E,G,E]2 [E,G,E] [E,A,E]2 [E,G,E] | [E,B,E]2 [E,G,B,] [E,G,]2 [E,B,E] | %3
 [B,,B,]2 [B,,B,] [B,,B,]2 [B,,B,] | [E,B,]3- [E,B,]2 [E,E] | [E,E]2 [E,E] [E,E]2 [E,E] | %6
 [E,B,E]2 [E,G,B,] [E,G,]2 [E,B,E] | [B,D]CF, F,2 F, | B,,3- B,,2 B,, | B,,2 B,, C,2 C, | %10
 D,2 D, E,2 E, | F,2 F, G,2 E, | B,,3- B,,2 B, | [E,B,] [E,E]2 [E,B,E]2 [G,B,E] | %14
 [A,CE]2 [A,CE] [A,CE]2 [A,,A,] | [B,,F,]2 C, D,E,F, | E,2 A, G,2 [F,B,] | %17
[M:7/8] [E,B,]2 [E,B,] [B,,B,] [B,,F,]3 |[M:5/8] [E,G,]-[E,G,]- [E,G,]3 |] %19
V:3
 x6 | x6 | x6 | x6 | x6 | x6 | x6 | .F3 z3 | x6 | x6 | x6 | x6 | x6 | x6 | x6 | z3 .F3 | %16
 [B,G]2 [DF] E2 [Ad] |[M:7/8] x7 |[M:5/8] x5 |] %19
V:4
 x6 | x6 | x6 | x6 | x6 | x6 | x6 | .F,3 z3 | x6 | x6 | x6 | x6 | x6 | x6 | x6 | x6 | x6 | %17
[M:7/8] x7 |[M:5/8] x5 |] %19

